Project/res/luts/repImage.CUBE
#Created by: Adobe Photoshop Export Color Lookup Plugin
TITLE "repImage.PNG"
#LUT size
LUT_3D_SIZE 5
#data domain
#LUT data points
DOMAIN_MIN 0.000000 0.000000 0.000000
DOMAIN_MAX 0.903226 0.903226 0.903226
0.000000 0.000000 0.000000
0.066589 0.000000 0.003571
0.272736 0.000000 0.153412
0.469788 0.018097 0.178833
0.548950 0.070587 0.184387
0.019562 0.070618 0.086456
0.078522 0.059174 0.098938
0.269745 0.027252 0.155151
0.465454 0.056976 0.178589
0.559937 0.097198 0.192200
0.268738 0.270935 0.204773
0.274506 0.264496 0.204712
0.397675 0.267303 0.205963
0.623077 0.318451 0.203217
0.741241 0.353394 0.183411
0.761993 0.772675 0.254944
0.759277 0.761414 0.239899
0.817963 0.770081 0.282318
0.947510 0.837128 0.420197
1.000000 0.875214 0.504150
0.780457 0.886200 0.419525
0.778198 0.883911 0.417236
0.843811 0.909882 0.471161
0.962463 0.957855 0.577637
1.000000 0.992188 0.639313
0.007965 0.000000 0.106232
0.069519 0.000000 0.111542
0.258759 0.000000 0.214783
0.463348 0.022766 0.223969
0.552094 0.061127 0.223541
0.014984 0.065125 0.161957
0.059052 0.057465 0.168335
0.262024 0.026062 0.210205
0.467926 0.051666 0.216431
0.553650 0.091583 0.222443
0.264313 0.269012 0.232849
0.264709 0.260773 0.227020
0.392883 0.265320 0.231873
0.620483 0.315033 0.228546
0.749603 0.357513 0.200745
0.759644 0.768738 0.266876
0.759674 0.771088 0.276520
0.816010 0.771118 0.297272
0.944824 0.834076 0.426910
1.000000 0.868927 0.501099
0.784027 0.879059 0.426666
0.783478 0.882324 0.425537
0.835205 0.909027 0.484039
0.961700 0.961182 0.585602
1.000000 0.992188 0.639313
0.005310 0.017059 0.342590
0.022278 0.019073 0.349609
0.247986 0.000000 0.371613
0.471558 0.039612 0.375305
0.557800 0.095856 0.379150
0.025513 0.057098 0.368500
0.039825 0.054260 0.366638
0.250793 0.034515 0.367523
0.467834 0.071991 0.371826
0.570526 0.107452 0.372467
0.287994 0.271881 0.374878
0.279633 0.264191 0.368683
0.396423 0.270905 0.370178
0.633392 0.323578 0.370880
0.762329 0.363556 0.344269
0.771484 0.782135 0.448883
0.767578 0.769043 0.432495
0.820282 0.775604 0.449829
0.944824 0.834778 0.561798
1.000000 0.877655 0.636749
0.780457 0.900482 0.586426
0.780457 0.896973 0.580505
0.833374 0.920349 0.622528
0.952454 0.965210 0.697449
1.000000 0.984589 0.740326
0.090118 0.000000 0.490112
0.106964 0.000000 0.494171
0.266663 0.012360 0.502075
0.502533 0.079590 0.517151
0.603912 0.129425 0.521606
0.115875 0.051178 0.497925
0.129303 0.041504 0.497925
0.275391 0.043396 0.502075
0.508759 0.098145 0.510376
0.607758 0.134766 0.515350
0.363037 0.288025 0.521606
0.354645 0.280304 0.519226
0.450562 0.286987 0.512939
0.691193 0.346832 0.500671
0.835358 0.392700 0.463684
0.801453 0.804169 0.649414
0.803375 0.791473 0.638702
0.846222 0.795227 0.643402
0.947723 0.851563 0.749329
1.000000 0.896149 0.825165
0.804810 0.921600 0.785950
0.804321 0.920685 0.781128
0.846771 0.944305 0.812622
0.952087 0.976135 0.869812
1.000000 0.996094 0.934692
0.090118 0.000000 0.490112
0.105591 0.000000 0.494019
0.263733 0.012848 0.502075
0.499146 0.077576 0.517365
0.603912 0.129425 0.521606
0.114227 0.049194 0.497925
0.126648 0.039154 0.497925
0.273132 0.040588 0.502075
0.505157 0.096283 0.510803
0.607788 0.133301 0.517700
0.357910 0.284058 0.521301
0.349121 0.276550 0.518677
0.447388 0.283966 0.517853
0.688507 0.347198 0.513947
0.832642 0.392853 0.472290
0.801849 0.798920 0.651093
0.806824 0.786072 0.645203
0.850006 0.798004 0.670227
0.952393 0.850830 0.778107
1.000000 0.903473 0.863617
0.807800 0.921600 0.803894
0.807800 0.921600 0.803894
0.844269 0.941650 0.836700
0.946716 0.979584 0.905060
1.000000 1.000000 0.984375
