Project/res/luts/repImage.CUBE
#Created by: Adobe Photoshop Export Color Lookup Plugin
TITLE "repImage.PNG"
#LUT size
LUT_3D_SIZE 8
#data domain
#LUT data points
DOMAIN_MIN 0.000000 0.000000 0.000000
DOMAIN_MAX 0.903226 0.903226 0.903226
0.000000 0.000000 0.000000
0.004364 0.000000 0.000000
0.108124 0.000000 0.022095
0.209839 0.001740 0.138824
0.322479 0.000000 0.158691
0.437103 0.003876 0.174591
0.548950 0.070587 0.184387
0.548950 0.070587 0.184387
0.000000 0.002716 0.000000
0.002625 0.002594 0.000000
0.108887 0.002472 0.026978
0.210022 0.002686 0.139374
0.321259 0.000000 0.158600
0.436615 0.007019 0.174530
0.550171 0.074188 0.185577
0.550171 0.074188 0.185577
0.068665 0.091248 0.132935
0.069733 0.090454 0.131866
0.121277 0.078094 0.139984
0.230072 0.060791 0.157806
0.327576 0.049225 0.165375
0.443451 0.071075 0.179901
0.567078 0.116760 0.192200
0.566528 0.115143 0.192200
0.194519 0.194519 0.183990
0.194702 0.194702 0.184387
0.213165 0.190643 0.182739
0.286621 0.189941 0.193298
0.381775 0.191162 0.192108
0.509247 0.211182 0.200012
0.664886 0.265411 0.205109
0.663055 0.262207 0.205322
0.386719 0.371948 0.215057
0.386017 0.371368 0.214966
0.388428 0.362610 0.213074
0.451843 0.363464 0.213867
0.553741 0.384491 0.205444
0.692352 0.418854 0.170593
0.867706 0.487579 0.093170
0.864532 0.483337 0.093384
0.725494 0.685211 0.148987
0.725037 0.684235 0.147827
0.720520 0.671326 0.120758
0.761139 0.671051 0.139618
0.822845 0.689880 0.181091
0.909119 0.741486 0.282837
0.994537 0.800964 0.402039
1.000000 0.799713 0.402283
0.780457 0.886200 0.419525
0.780243 0.885956 0.419312
0.783630 0.882294 0.415619
0.816498 0.896912 0.456818
0.871338 0.923950 0.514587
0.944672 0.952759 0.568420
1.000000 0.987000 0.632721
1.000000 0.992188 0.639313
0.780457 0.886200 0.419525
0.780334 0.886047 0.419403
0.781433 0.882294 0.415619
0.813873 0.896027 0.455078
0.866577 0.921509 0.509674
0.938416 0.951202 0.565247
1.000000 0.983948 0.628876
1.000000 0.992188 0.639313
0.000000 0.000000 0.006134
0.004272 0.000000 0.005920
0.108582 0.000000 0.030029
0.209717 0.001770 0.144287
0.322296 0.000000 0.161926
0.437012 0.003845 0.177521
0.548950 0.070587 0.188110
0.548950 0.070587 0.188110
0.000000 0.004456 0.008392
0.003235 0.002289 0.006775
0.108154 0.003052 0.031952
0.209167 0.003479 0.142883
0.320374 0.000000 0.161560
0.436554 0.004395 0.177216
0.550140 0.071747 0.187195
0.550140 0.071747 0.187195
0.066345 0.091187 0.137054
0.066895 0.090973 0.136383
0.119171 0.079041 0.143829
0.229034 0.061615 0.158691
0.326569 0.048645 0.167969
0.444153 0.069305 0.182312
0.567078 0.116669 0.193726
0.566528 0.115051 0.193726
0.194427 0.195404 0.186890
0.195068 0.195038 0.186218
0.213013 0.190521 0.185425
0.285034 0.188995 0.194366
0.381622 0.191833 0.194489
0.509796 0.211426 0.201843
0.664124 0.263245 0.206482
0.662292 0.260010 0.206696
0.385620 0.372681 0.216827
0.385742 0.371643 0.216675
0.389008 0.363220 0.214722
0.450012 0.363251 0.215271
0.553406 0.384277 0.206909
0.691986 0.418610 0.170837
0.869293 0.489105 0.097321
0.866119 0.484863 0.097534
0.726196 0.684143 0.150299
0.725677 0.684387 0.149933
0.720520 0.670929 0.120422
0.760803 0.670013 0.138824
0.823883 0.689484 0.183258
0.908386 0.740570 0.283417
0.994446 0.800659 0.402557
1.000000 0.799469 0.402954
0.780457 0.886200 0.419525
0.780914 0.885986 0.419525
0.784241 0.882294 0.416260
0.816467 0.897522 0.457977
0.871826 0.925018 0.516693
0.944611 0.953217 0.569305
1.000000 0.986969 0.632690
1.000000 0.992188 0.639313
0.780457 0.886200 0.419525
0.780731 0.886078 0.419525
0.781982 0.882294 0.416168
0.813843 0.896545 0.456055
0.866547 0.921509 0.509613
0.938354 0.951538 0.565918
1.000000 0.983887 0.628815
1.000000 0.992188 0.639313
0.032959 0.000000 0.131836
0.035400 0.000000 0.132935
0.098450 0.000549 0.154968
0.194794 0.002197 0.232330
0.309326 0.000000 0.236389
0.429810 0.008972 0.244781
0.549774 0.061951 0.246124
0.550049 0.061646 0.244354
0.031494 0.001740 0.133972
0.033722 0.001648 0.134186
0.095856 0.004425 0.158203
0.194214 0.003876 0.231628
0.309662 0.000641 0.235931
0.430481 0.010559 0.244202
0.550415 0.065277 0.245636
0.550720 0.065002 0.243835
0.039978 0.084778 0.221893
0.042419 0.084503 0.220581
0.095886 0.079407 0.223450
0.210999 0.059540 0.230682
0.317413 0.046936 0.231842
0.434784 0.072632 0.240295
0.565826 0.112549 0.241272
0.564789 0.111176 0.239471
0.189911 0.197235 0.242981
0.190796 0.196838 0.242767
0.202972 0.190613 0.238220
0.279907 0.186768 0.235870
0.376068 0.191223 0.238129
0.512482 0.214264 0.239044
0.659760 0.257141 0.237335
0.657593 0.254333 0.235992
0.381012 0.372620 0.254669
0.381104 0.371948 0.254486
0.386597 0.361877 0.250061
0.445313 0.360748 0.246124
0.547089 0.379517 0.240417
0.690552 0.419220 0.203156
0.865051 0.481964 0.138031
0.861328 0.477264 0.135651
0.714050 0.672729 0.170349
0.713837 0.672821 0.171173
0.714508 0.666504 0.158569
0.753448 0.662903 0.162109
0.822632 0.690582 0.214600
0.904388 0.736359 0.298706
0.989655 0.799011 0.415283
0.993835 0.798523 0.414276
0.776459 0.886200 0.435852
0.776550 0.886261 0.436005
0.781586 0.882843 0.434784
0.820679 0.897186 0.474823
0.876129 0.926514 0.522034
0.949951 0.954254 0.579254
1.000000 0.986206 0.635101
1.000000 0.992188 0.646027
0.779205 0.883575 0.432709
0.779297 0.883453 0.432587
0.783722 0.883881 0.433563
0.818359 0.896942 0.468079
0.873596 0.921448 0.509705
0.944305 0.952759 0.573792
1.000000 0.981598 0.625824
1.000000 0.992188 0.642883
0.041473 0.006073 0.260986
0.041779 0.006683 0.262543
0.070526 0.018341 0.290924
0.193390 0.000000 0.325256
0.307892 0.001373 0.331696
0.428497 0.020111 0.332581
0.560394 0.081696 0.343292
0.560120 0.081177 0.341736
0.035950 0.011078 0.265289
0.039642 0.010101 0.266418
0.070465 0.019104 0.291107
0.194336 0.002197 0.325562
0.307281 0.003235 0.330597
0.429138 0.023224 0.332520
0.560852 0.082642 0.342804
0.560608 0.082123 0.341278
0.037567 0.079681 0.326630
0.039154 0.079956 0.326233
0.087982 0.072601 0.322968
0.199341 0.063660 0.323395
0.309052 0.059357 0.324310
0.435760 0.078003 0.327545
0.573944 0.124908 0.333008
0.572571 0.122223 0.331726
0.187317 0.196960 0.330200
0.187317 0.196625 0.329468
0.197632 0.188293 0.325256
0.273773 0.189728 0.328186
0.376617 0.193695 0.326599
0.509003 0.217743 0.328064
0.667786 0.265808 0.333588
0.664948 0.262268 0.331787
0.388794 0.367493 0.338623
0.389587 0.368073 0.338409
0.399353 0.363983 0.335114
0.450439 0.365295 0.333649
0.560669 0.386444 0.323303
0.701202 0.424255 0.292603
0.873932 0.488556 0.248474
0.871765 0.484955 0.245544
0.730957 0.682098 0.299408
0.731079 0.680664 0.297791
0.729889 0.668854 0.276764
0.754242 0.663605 0.276245
0.823944 0.686493 0.315216
0.902008 0.738434 0.395508
0.990204 0.798981 0.495728
0.996277 0.800018 0.498260
0.783356 0.887207 0.531677
0.783203 0.887177 0.531403
0.784668 0.890686 0.533112
0.813873 0.907654 0.559570
0.866211 0.931396 0.601898
0.943115 0.962311 0.656586
1.000000 0.984497 0.700439
1.000000 0.991028 0.711761
0.784210 0.886383 0.524811
0.784149 0.886505 0.524780
0.783447 0.891022 0.526703
0.809143 0.907104 0.550507
0.861481 0.928162 0.591095
0.938416 0.961517 0.649353
1.000000 0.982666 0.688141
1.000000 0.992188 0.705658
0.011322 0.011841 0.413086
0.011078 0.011932 0.410706
0.069580 0.008057 0.410431
0.199036 0.000610 0.412659
0.308075 0.004456 0.412659
0.437317 0.035736 0.417114
0.567383 0.102051 0.418304
0.567139 0.101318 0.417358
0.015137 0.013672 0.412415
0.014679 0.013672 0.412048
0.068298 0.010559 0.411316
0.198975 0.002838 0.412170
0.307983 0.004761 0.411865
0.437195 0.039032 0.416626
0.567291 0.101837 0.417480
0.567047 0.101105 0.416504
0.073608 0.075348 0.415344
0.074219 0.075043 0.415649
0.105652 0.069824 0.408325
0.209290 0.065063 0.412201
0.313843 0.061310 0.408722
0.449646 0.085297 0.412445
0.585846 0.136871 0.414032
0.585083 0.135559 0.412354
0.209778 0.197357 0.415680
0.209595 0.197388 0.416290
0.221924 0.189789 0.412842
0.284271 0.193512 0.410583
0.385956 0.197571 0.408081
0.518311 0.220642 0.411499
0.688934 0.277985 0.419159
0.686157 0.274536 0.417969
0.429504 0.379700 0.418488
0.428162 0.378967 0.418579
0.424255 0.367859 0.412476
0.478271 0.373810 0.412170
0.573792 0.388397 0.398773
0.716553 0.423157 0.378082
0.896576 0.498230 0.348846
0.895569 0.493896 0.344635
0.748230 0.691010 0.404358
0.747803 0.689850 0.402740
0.751984 0.676514 0.387756
0.779144 0.676239 0.393982
0.834656 0.704895 0.437592
0.909210 0.745361 0.500549
0.991943 0.807220 0.601532
0.999542 0.810333 0.604462
0.788269 0.898590 0.641510
0.788269 0.898438 0.641052
0.793762 0.907532 0.652313
0.819763 0.914764 0.665924
0.864105 0.942230 0.711029
0.936005 0.962189 0.745514
1.000000 0.988800 0.800110
1.000000 0.992188 0.815582
0.786499 0.897034 0.632996
0.786407 0.896973 0.632690
0.790405 0.905304 0.642181
0.818512 0.913025 0.655670
0.862762 0.939789 0.700043
0.930206 0.961395 0.737457
1.000000 0.987030 0.785187
1.000000 0.991699 0.805786
0.090118 0.000000 0.490112
0.090576 0.000031 0.490662
0.127228 0.000671 0.494263
0.217896 0.006592 0.497437
0.323761 0.022156 0.493683
0.458984 0.064362 0.502869
0.597870 0.114349 0.497314
0.597412 0.113220 0.495453
0.089630 0.003387 0.492432
0.089264 0.003326 0.492126
0.128113 0.002899 0.493774
0.216705 0.007904 0.495483
0.324127 0.022552 0.493225
0.460510 0.065826 0.501923
0.597748 0.114014 0.495697
0.597260 0.112854 0.493835
0.123596 0.075195 0.493256
0.124298 0.074432 0.492950
0.144714 0.069550 0.489655
0.222137 0.065796 0.488556
0.334473 0.070435 0.488647
0.465424 0.103119 0.493683
0.616821 0.155762 0.496307
0.614502 0.153809 0.494690
0.246429 0.201996 0.495819
0.245392 0.201599 0.495087
0.252380 0.197021 0.496246
0.313507 0.195679 0.490173
0.413574 0.210907 0.492706
0.550751 0.239594 0.493439
0.720642 0.292664 0.491364
0.717651 0.289703 0.491119
0.481323 0.389709 0.502258
0.480316 0.389343 0.502319
0.470642 0.380371 0.496857
0.526581 0.385559 0.489563
0.616425 0.406189 0.481476
0.765442 0.447632 0.445557
0.919983 0.512238 0.442841
0.919952 0.508087 0.439331
0.782166 0.703857 0.514801
0.781677 0.702789 0.513306
0.781677 0.697052 0.507629
0.800446 0.695801 0.511566
0.857819 0.718628 0.545197
0.923340 0.761688 0.619781
0.994659 0.825195 0.718445
1.000000 0.830444 0.722961
0.799713 0.917419 0.764954
0.799591 0.917145 0.764221
0.801849 0.920685 0.767090
0.826691 0.936523 0.785645
0.867981 0.949615 0.812561
0.933777 0.971466 0.847534
0.994507 0.992432 0.901825
1.000000 0.996094 0.919006
0.796509 0.914215 0.753204
0.796387 0.914063 0.752655
0.800781 0.920746 0.760742
0.822723 0.932617 0.774475
0.864899 0.947540 0.802460
0.927948 0.969910 0.836609
0.992218 0.990906 0.886993
1.000000 0.996094 0.910370
0.090118 0.000000 0.490112
0.090729 0.000000 0.490753
0.128784 0.000000 0.497803
0.220764 0.005188 0.503265
0.327972 0.031250 0.502625
0.459747 0.061310 0.512421
0.603912 0.129425 0.521606
0.603912 0.129425 0.521606
0.090118 0.003235 0.492584
0.090118 0.003052 0.492462
0.129852 0.002167 0.497742
0.219818 0.006439 0.501740
0.328125 0.031708 0.502502
0.461243 0.062653 0.511780
0.603912 0.129425 0.520599
0.603912 0.129425 0.520599
0.128693 0.073853 0.499603
0.129547 0.073059 0.499573
0.157227 0.067810 0.499939
0.231720 0.063171 0.502289
0.338562 0.074463 0.505402
0.471710 0.101715 0.517426
0.619965 0.151672 0.519562
0.618866 0.149750 0.519836
0.250732 0.197937 0.510773
0.249847 0.197540 0.510345
0.263031 0.195831 0.510895
0.321075 0.196716 0.513489
0.423920 0.211060 0.514465
0.554932 0.238525 0.517365
0.737396 0.302399 0.520355
0.734436 0.299866 0.521484
0.489197 0.387726 0.521606
0.488342 0.387360 0.521912
0.482574 0.381042 0.521851
0.533020 0.386810 0.514954
0.628296 0.408447 0.508118
0.778900 0.452240 0.475586
0.942871 0.525269 0.491089
0.945984 0.525269 0.492432
0.792725 0.707581 0.547394
0.793060 0.706512 0.546661
0.790649 0.687958 0.534363
0.818695 0.698395 0.555725
0.866119 0.727814 0.602631
0.927765 0.768890 0.676727
0.995209 0.834839 0.783478
1.000000 0.838715 0.794128
0.807800 0.921600 0.803894
0.807800 0.921600 0.803894
0.807800 0.929443 0.811737
0.833923 0.937622 0.836060
0.874939 0.953033 0.851654
0.935577 0.975098 0.900452
0.992188 0.996094 0.970551
1.000000 1.000000 0.984375
0.807800 0.921600 0.803894
0.807800 0.921600 0.803894
0.807800 0.925964 0.808258
0.831207 0.935852 0.832489
0.871582 0.952148 0.851776
0.931671 0.973541 0.898834
0.989136 0.994568 0.965149
1.000000 1.000000 0.984375
0.090118 0.000000 0.490112
0.090729 0.000000 0.490723
0.127777 0.000000 0.497650
0.220062 0.004913 0.502991
0.326721 0.031250 0.502350
0.458069 0.060669 0.512177
0.603912 0.129425 0.521606
0.603912 0.129425 0.521606
0.090118 0.003174 0.492523
0.090118 0.002991 0.492401
0.128845 0.002106 0.497589
0.219116 0.006104 0.501495
0.326447 0.031403 0.502228
0.459534 0.061981 0.511536
0.603912 0.129425 0.520660
0.603912 0.129425 0.520660
0.128296 0.072479 0.499390
0.129120 0.071716 0.499359
0.156281 0.066254 0.499969
0.229614 0.061310 0.502106
0.337067 0.072906 0.505249
0.469666 0.099182 0.516968
0.619141 0.150208 0.519775
0.618042 0.148285 0.520050
0.248474 0.196045 0.510590
0.247589 0.195587 0.510193
0.260773 0.193939 0.510742
0.318115 0.194946 0.513306
0.420502 0.208801 0.513977
0.551788 0.235992 0.517242
0.735077 0.300415 0.521240
0.732086 0.297882 0.522400
0.485535 0.384735 0.521606
0.484680 0.384338 0.521912
0.477844 0.377533 0.521362
0.528046 0.383545 0.515625
0.622772 0.404846 0.510315
0.773346 0.447754 0.475983
0.938721 0.521149 0.490326
0.943481 0.521790 0.491119
0.792236 0.702667 0.541809
0.792358 0.701599 0.541046
0.788391 0.683746 0.531403
0.816559 0.693756 0.552124
0.864899 0.723206 0.597595
0.926483 0.764618 0.671326
0.994690 0.830505 0.778046
1.000000 0.835358 0.790436
0.807800 0.921600 0.803894
0.807800 0.921600 0.803894
0.807800 0.928864 0.811157
0.833466 0.937317 0.835449
0.874237 0.952820 0.851105
0.934906 0.974854 0.900177
0.991638 0.995819 0.969635
1.000000 1.000000 0.984375
0.807800 0.921600 0.803894
0.807800 0.921600 0.803894
0.807800 0.925323 0.807587
0.830750 0.935547 0.831879
0.871033 0.951996 0.851898
0.931000 0.973297 0.898560
0.988617 0.994293 0.964264
1.000000 1.000000 0.984375
