Project/res/luts/repImage.CUBE
#Created by: Adobe Photoshop Export Color Lookup Plugin
TITLE "repImage.PNG"
#LUT size
LUT_3D_SIZE 32
#data domain
DOMAIN_MIN 0.0 0.0 0.0
DOMAIN_MAX 1.0 1.0 1.0
#LUT data points
0.000000 0.000000 0.000000
0.000000 0.000000 0.000000
0.000000 0.000000 0.000000
0.000000 0.000000 0.000000
0.004364 0.000000 0.000000
0.019928 0.000000 0.000000
0.039642 0.000000 0.000000
0.066589 0.000000 0.003571
0.108124 0.000000 0.022095
0.121979 0.001068 0.056396
0.151367 0.008148 0.093201
0.175751 0.011597 0.124481
0.209839 0.001740 0.138824
0.244476 0.000000 0.146881
0.272736 0.000000 0.153412
0.297363 0.000000 0.156769
0.322479 0.000000 0.158691
0.351318 0.000000 0.164856
0.380157 0.000000 0.168243
0.408844 0.000000 0.171478
0.437103 0.003876 0.174591
0.469788 0.018097 0.178833
0.509644 0.045563 0.184387
0.543365 0.067017 0.184387
0.548950 0.070587 0.184387
0.548950 0.070587 0.184387
0.548950 0.070587 0.184387
0.548950 0.070587 0.184387
0.548950 0.070587 0.184387
0.548950 0.070587 0.184387
0.548950 0.070587 0.184387
0.548950 0.070587 0.184387
0.000000 0.000000 0.000000
0.000000 0.000000 0.000000
0.000000 0.000000 0.000000
0.000000 0.000000 0.000000
0.004364 0.000000 0.000000
0.019928 0.000000 0.000000
0.039642 0.000000 0.000000
0.066589 0.000000 0.003571
0.108124 0.000000 0.022095
0.121979 0.001068 0.056396
0.151367 0.008148 0.093201
0.175751 0.011597 0.124481
0.209839 0.001740 0.138824
0.244476 0.000000 0.146881
0.272736 0.000000 0.153412
0.297363 0.000000 0.156769
0.322479 0.000000 0.158691
0.351318 0.000000 0.164856
0.380157 0.000000 0.168243
0.408844 0.000000 0.171478
0.437103 0.003876 0.174591
0.469788 0.018097 0.178833
0.509644 0.045563 0.184387
0.543365 0.067017 0.184387
0.548950 0.070587 0.184387
0.548950 0.070587 0.184387
0.548950 0.070587 0.184387
0.548950 0.070587 0.184387
0.548950 0.070587 0.184387
0.548950 0.070587 0.184387
0.548950 0.070587 0.184387
0.548950 0.070587 0.184387
0.000000 0.000000 0.000000
0.000000 0.000000 0.000000
0.000000 0.000000 0.000000
0.000000 0.000000 0.000000
0.004364 0.000000 0.000000
0.019928 0.000000 0.000000
0.039642 0.000000 0.000000
0.066589 0.000000 0.003571
0.108124 0.000000 0.022095
0.121979 0.001068 0.056396
0.151367 0.008148 0.093201
0.175751 0.011597 0.124481
0.209839 0.001740 0.138824
0.244476 0.000000 0.146881
0.272736 0.000000 0.153412
0.297363 0.000000 0.156769
0.322479 0.000000 0.158691
0.351318 0.000000 0.164856
0.380157 0.000000 0.168243
0.408844 0.000000 0.171478
0.437103 0.003876 0.174591
0.469788 0.018097 0.178833
0.509644 0.045563 0.184387
0.543365 0.067017 0.184387
0.548950 0.070587 0.184387
0.548950 0.070587 0.184387
0.548950 0.070587 0.184387
0.548950 0.070587 0.184387
0.548950 0.070587 0.184387
0.548950 0.070587 0.184387
0.548950 0.070587 0.184387
0.548950 0.070587 0.184387
0.000000 0.000000 0.000000
0.000000 0.000000 0.000000
0.000000 0.000000 0.000000
0.000000 0.000000 0.000000
0.004364 0.000000 0.000000
0.019928 0.000000 0.000000
0.039642 0.000000 0.000000
0.066589 0.000000 0.003571
0.108124 0.000000 0.022095
0.121979 0.001068 0.056396
0.151367 0.008148 0.093201
0.175751 0.011597 0.124481
0.209839 0.001740 0.138824
0.244476 0.000000 0.146881
0.272736 0.000000 0.153412
0.297363 0.000000 0.156769
0.322479 0.000000 0.158691
0.351318 0.000000 0.164856
0.380157 0.000000 0.168243
0.408844 0.000000 0.171478
0.437103 0.003876 0.174591
0.469788 0.018097 0.178833
0.509644 0.045563 0.184387
0.543365 0.067017 0.184387
0.548950 0.070587 0.184387
0.548950 0.070587 0.184387
0.548950 0.070587 0.184387
0.548950 0.070587 0.184387
0.548950 0.070587 0.184387
0.548950 0.070587 0.184387
0.548950 0.070587 0.184387
0.548950 0.070587 0.184387
0.000000 0.002716 0.000000
0.000000 0.002716 0.000000
0.000000 0.002716 0.000000
0.000000 0.002716 0.000000
0.002625 0.002594 0.000000
0.017792 0.002594 0.000000
0.039093 0.003448 0.003448
0.064026 0.002502 0.010803
0.108887 0.002472 0.026978
0.122192 0.003876 0.059784
0.151520 0.010773 0.095093
0.176880 0.013092 0.124695
0.210022 0.002686 0.139374
0.243134 0.000000 0.147552
0.271545 0.000000 0.151825
0.296967 0.000000 0.156769
0.321259 0.000000 0.158600
0.350342 0.000397 0.165009
0.379669 0.001373 0.168884
0.408356 0.002777 0.172119
0.436615 0.007019 0.174530
0.468445 0.019562 0.178741
0.509247 0.047943 0.184937
0.543976 0.070251 0.185577
0.550171 0.074188 0.185577
0.550171 0.074188 0.185577
0.550171 0.074188 0.185577
0.550171 0.074188 0.185577
0.550171 0.074188 0.185577
0.550171 0.074188 0.185577
0.550171 0.074188 0.185577
0.550171 0.074188 0.185577
0.000000 0.014069 0.002838
0.000000 0.014069 0.002838
0.000000 0.014069 0.002838
0.000000 0.014069 0.002838
0.003357 0.013214 0.001892
0.012177 0.012085 0.000458
0.032776 0.013733 0.007355
0.061279 0.015167 0.020996
0.101257 0.011261 0.052246
0.126740 0.012024 0.075623
0.149506 0.022736 0.105713
0.180908 0.018585 0.125793
0.211243 0.006592 0.141327
0.240173 0.000946 0.149902
0.267303 0.000000 0.150391
0.293518 0.000000 0.152679
0.319489 0.000000 0.158203
0.345825 0.000031 0.164612
0.377930 0.006348 0.171143
0.406616 0.011261 0.174377
0.434875 0.017242 0.175690
0.465698 0.028961 0.178345
0.504242 0.053009 0.184540
0.546417 0.082458 0.190094
0.554474 0.087158 0.189911
0.554474 0.087158 0.189911
0.554474 0.087158 0.189911
0.554474 0.087158 0.189911
0.554474 0.087158 0.189911
0.554474 0.087158 0.189911
0.554474 0.087158 0.189911
0.554474 0.087158 0.189911
0.000000 0.046631 0.041840
0.000000 0.046631 0.041840
0.000000 0.046631 0.041840
0.000000 0.046631 0.041840
0.005188 0.044861 0.039978
0.023712 0.038544 0.033325
0.041229 0.036957 0.041595
0.066559 0.037537 0.057770
0.096802 0.035187 0.078339
0.131287 0.031403 0.097137
0.153534 0.034241 0.121338
0.186707 0.025360 0.133606
0.219971 0.015411 0.140839
0.241394 0.013611 0.149841
0.267426 0.009613 0.152863
0.293427 0.007294 0.154419
0.320465 0.007263 0.161499
0.347412 0.009705 0.166260
0.378784 0.016602 0.170776
0.408325 0.017578 0.174927
0.434845 0.031036 0.176575
0.465515 0.040253 0.179352
0.503601 0.059723 0.186920
0.544861 0.085876 0.190308
0.557861 0.095093 0.192200
0.557800 0.095032 0.192200
0.557800 0.095032 0.192200
0.557800 0.095032 0.192200
0.557800 0.095032 0.192200
0.557800 0.095032 0.192200
0.557800 0.095032 0.192200
0.557800 0.095032 0.192200
0.019562 0.070618 0.086456
0.019562 0.070618 0.086456
0.019562 0.070618 0.086456
0.019562 0.070618 0.086456
0.025116 0.068970 0.087067
0.044556 0.063171 0.087830
0.058960 0.060120 0.087036
0.078522 0.059174 0.098938
0.102112 0.057983 0.111298
0.135071 0.053101 0.124298
0.161804 0.048340 0.134338
0.194305 0.039764 0.143555
0.222595 0.032684 0.146698
0.247650 0.027069 0.152039
0.269745 0.027252 0.155151
0.295532 0.022583 0.155731
0.321808 0.019165 0.165222
0.350006 0.024750 0.169006
0.381042 0.031891 0.171051
0.411255 0.032349 0.174744
0.438568 0.037964 0.177094
0.465454 0.056976 0.178589
0.505890 0.068146 0.191010
0.545319 0.088715 0.191559
0.560181 0.097412 0.192200
0.559998 0.097229 0.192200
0.559937 0.097198 0.192200
0.559937 0.097198 0.192200
0.559937 0.097198 0.192200
0.559937 0.097198 0.192200
0.559937 0.097198 0.192200
0.559937 0.097198 0.192200
0.068665 0.091248 0.132935
0.068665 0.091248 0.132935
0.068665 0.091248 0.132935
0.068665 0.091248 0.132935
0.069733 0.090454 0.131866
0.076294 0.087097 0.128967
0.087280 0.083801 0.130890
0.097565 0.082794 0.135406
0.121277 0.078094 0.139984
0.146210 0.075684 0.148865
0.173981 0.069305 0.148132
0.201355 0.064209 0.152191
0.230072 0.060791 0.157806
0.251434 0.057434 0.158966
0.272003 0.054260 0.162506
0.301178 0.054291 0.162170
0.327576 0.049225 0.165375
0.353241 0.056274 0.171814
0.381012 0.061646 0.170471
0.411224 0.064941 0.172577
0.443451 0.071075 0.179901
0.476776 0.084503 0.187103
0.510468 0.089325 0.183472
0.550232 0.108521 0.190796
0.567078 0.116760 0.192200
0.566711 0.115662 0.192200
0.566528 0.115143 0.192200
0.566528 0.115143 0.192200
0.566528 0.115143 0.192200
0.566528 0.115143 0.192200
0.566528 0.115143 0.192200
0.566528 0.115143 0.192200
0.105103 0.112915 0.156372
0.105103 0.112915 0.156372
0.105103 0.112915 0.156372
0.105103 0.112915 0.156372
0.107117 0.112091 0.155670
0.114044 0.109161 0.153198
0.117828 0.106873 0.151398
0.120789 0.105865 0.152435
0.142548 0.101837 0.156189
0.165070 0.099487 0.158752
0.188385 0.093567 0.158112
0.209503 0.093018 0.159607
0.235291 0.092896 0.164734
0.260498 0.089600 0.169739
0.286560 0.086945 0.170441
0.304169 0.084839 0.170135
0.333008 0.089691 0.169800
0.362701 0.088776 0.174988
0.391449 0.090912 0.177185
0.422729 0.092194 0.178345
0.455811 0.099640 0.182190
0.486816 0.119476 0.188416
0.523804 0.127228 0.191498
0.559753 0.131958 0.193359
0.578186 0.137329 0.195343
0.577637 0.136444 0.195160
0.577393 0.136017 0.195068
0.577393 0.136017 0.195068
0.577393 0.136017 0.195068
0.577393 0.136017 0.195068
0.577393 0.136017 0.195068
0.577393 0.136017 0.195068
0.135101 0.138184 0.167938
0.135101 0.138184 0.167938
0.135101 0.138184 0.167938
0.135101 0.138184 0.167938
0.136444 0.137909 0.168365
0.141632 0.136414 0.169098
0.145660 0.133942 0.167053
0.145752 0.132660 0.166229
0.167664 0.131470 0.166565
0.184479 0.130280 0.169403
0.203278 0.123260 0.168915
0.223633 0.123688 0.172211
0.249023 0.123596 0.171875
0.270447 0.123779 0.174561
0.290497 0.120361 0.174408
0.325653 0.122864 0.177826
0.339508 0.119019 0.178040
0.370880 0.117493 0.177917
0.405670 0.126526 0.183380
0.437164 0.135101 0.189819
0.466461 0.137238 0.191803
0.500214 0.142853 0.191772
0.536743 0.160858 0.194794
0.577545 0.172150 0.193298
0.599426 0.176086 0.192932
0.598480 0.174377 0.193085
0.597961 0.173401 0.193176
0.597961 0.173401 0.193176
0.597961 0.173401 0.193176
0.597961 0.173401 0.193176
0.597961 0.173401 0.193176
0.597961 0.173401 0.193176
0.166473 0.166473 0.177002
0.166473 0.166473 0.177002
0.166473 0.166473 0.177002
0.166473 0.166473 0.177002
0.167145 0.166168 0.176910
0.170563 0.164978 0.177155
0.174316 0.163116 0.178406
0.174316 0.160889 0.178253
0.190063 0.161407 0.176758
0.208862 0.160217 0.179596
0.223267 0.156219 0.180298
0.240631 0.155518 0.183197
0.264008 0.156738 0.184631
0.289429 0.152313 0.179504
0.304718 0.152313 0.182434
0.333344 0.150726 0.181976
0.362244 0.155426 0.187653
0.387970 0.157867 0.191223
0.420715 0.163483 0.192291
0.455719 0.170471 0.194702
0.487183 0.175720 0.199524
0.523712 0.183411 0.199219
0.562775 0.193665 0.196075
0.607208 0.209747 0.202118
0.634766 0.218079 0.204437
0.633209 0.216400 0.203827
0.632446 0.215576 0.203522
0.632446 0.215576 0.203522
0.632446 0.215576 0.203522
0.632446 0.215576 0.203522
0.632446 0.215576 0.203522
0.632446 0.215576 0.203522
0.194519 0.194519 0.183990
0.194519 0.194519 0.183990
0.194519 0.194519 0.183990
0.194519 0.194519 0.183990
0.194702 0.194702 0.184387
0.196045 0.194641 0.185181
0.199066 0.193329 0.183960
0.201263 0.190552 0.181763
0.213165 0.190643 0.182739
0.228546 0.189423 0.185577
0.245514 0.188080 0.189972
0.264832 0.188812 0.191681
0.286621 0.189941 0.193298
0.308075 0.187744 0.191864
0.328430 0.183990 0.189087
0.353149 0.189148 0.192200
0.381775 0.191162 0.192108
0.409943 0.195496 0.194550
0.443054 0.200104 0.197601
0.478363 0.205322 0.199066
0.509247 0.211182 0.200012
0.542786 0.224884 0.200012
0.590057 0.240387 0.202667
0.633606 0.254974 0.201813
0.664886 0.265411 0.205109
0.663666 0.263275 0.205261
0.663055 0.262207 0.205322
0.663055 0.262207 0.205322
0.663055 0.262207 0.205322
0.663055 0.262207 0.205322
0.663055 0.262207 0.205322
0.663055 0.262207 0.205322
0.226318 0.227631 0.193542
0.226318 0.227631 0.193542
0.226318 0.227631 0.193542
0.226318 0.227631 0.193542
0.227325 0.227142 0.193390
0.228882 0.226593 0.193939
0.228851 0.226715 0.195190
0.230927 0.225128 0.191528
0.241394 0.225311 0.189667
0.258362 0.223083 0.189453
0.273376 0.220917 0.193542
0.290344 0.221008 0.198181
0.314606 0.222687 0.200012
0.338165 0.223633 0.199127
0.354980 0.222076 0.195831
0.383423 0.220520 0.195557
0.414581 0.228943 0.201691
0.442810 0.233917 0.204559
0.473633 0.240356 0.207336
0.507385 0.246552 0.207367
0.537964 0.251526 0.202789
0.576477 0.265442 0.200012
0.624084 0.281952 0.204926
0.665344 0.297028 0.206390
0.695740 0.308228 0.206238
0.694397 0.306610 0.206116
0.693695 0.305756 0.206024
0.693695 0.305756 0.206024
0.693695 0.305756 0.206024
0.693695 0.305756 0.206024
0.693695 0.305756 0.206024
0.693695 0.305756 0.206024
0.268738 0.270935 0.204773
0.268738 0.270935 0.204773
0.268738 0.270935 0.204773
0.268738 0.270935 0.204773
0.269104 0.270386 0.205231
0.271912 0.268433 0.205261
0.274841 0.266479 0.204987
0.274506 0.264496 0.204712
0.277435 0.262543 0.204163
0.288788 0.258759 0.200134
0.311707 0.258728 0.200012
0.331299 0.262451 0.203583
0.349854 0.263123 0.202484
0.374054 0.263306 0.201447
0.397675 0.267303 0.205963
0.425476 0.271637 0.202484
0.447906 0.269531 0.207825
0.478088 0.274719 0.207642
0.510529 0.282349 0.207825
0.544861 0.293030 0.209076
0.574707 0.302887 0.206512
0.623077 0.318451 0.203217
0.666229 0.329468 0.193420
0.715363 0.346069 0.184265
0.745087 0.356812 0.180420
0.742584 0.354584 0.182373
0.741241 0.353394 0.183411
0.741241 0.353394 0.183411
0.741241 0.353394 0.183411
0.741241 0.353394 0.183411
0.741241 0.353394 0.183411
0.741241 0.353394 0.183411
0.323486 0.318665 0.208405
0.323486 0.318665 0.208405
0.323486 0.318665 0.208405
0.323486 0.318665 0.208405
0.323059 0.318054 0.208496
0.323914 0.315857 0.209961
0.325043 0.313629 0.211578
0.323273 0.311707 0.211426
0.331085 0.309784 0.209229
0.342926 0.309692 0.207397
0.357147 0.310394 0.207886
0.375519 0.309723 0.208984
0.393768 0.307678 0.207886
0.415314 0.308868 0.208771
0.442657 0.313629 0.210480
0.467377 0.323486 0.209930
0.500397 0.325165 0.206604
0.526550 0.328583 0.211273
0.557526 0.336670 0.210052
0.593719 0.347443 0.207336
0.628998 0.357697 0.199982
0.675842 0.375610 0.184814
0.723907 0.389404 0.166931
0.767578 0.404114 0.153107
0.807159 0.417755 0.131775
0.804443 0.414764 0.133911
0.803101 0.413300 0.134979
0.803101 0.413300 0.134979
0.803101 0.413300 0.134979
0.803101 0.413300 0.134979
0.803101 0.413300 0.134979
0.803101 0.413300 0.134979
0.386719 0.371948 0.215057
0.386719 0.371948 0.215057
0.386719 0.371948 0.215057
0.386719 0.371948 0.215057
0.386017 0.371368 0.214966
0.383453 0.369202 0.214722
0.381195 0.366974 0.214630
0.383026 0.364746 0.214905
0.388428 0.362610 0.213074
0.406006 0.365265 0.212341
0.418213 0.366089 0.213348
0.431946 0.364990 0.215485
0.451843 0.363464 0.213867
0.470734 0.365021 0.212006
0.496460 0.371185 0.213928
0.522583 0.376984 0.213806
0.553741 0.384491 0.205444
0.583374 0.385101 0.195587
0.622345 0.397430 0.189087
0.658142 0.412109 0.184021
0.692352 0.418854 0.170593
0.738892 0.436249 0.150330
0.779449 0.450470 0.127136
0.826965 0.467560 0.113098
0.867706 0.487579 0.093170
0.865601 0.484741 0.093292
0.864532 0.483337 0.093384
0.864532 0.483337 0.093384
0.864532 0.483337 0.093384
0.864532 0.483337 0.093384
0.864532 0.483337 0.093384
0.864532 0.483337 0.093384
0.453033 0.431335 0.209564
0.453033 0.431335 0.209564
0.453033 0.431335 0.209564
0.453033 0.431335 0.209564
0.454681 0.432281 0.209625
0.460663 0.435608 0.209900
0.463196 0.436676 0.210175
0.461060 0.430786 0.210449
0.464386 0.425781 0.210724
0.477295 0.425812 0.205261
0.494446 0.428589 0.204712
0.501862 0.425232 0.202667
0.522186 0.427704 0.200806
0.541656 0.429749 0.193665
0.566742 0.433807 0.192017
0.594086 0.442810 0.183807
0.624817 0.448700 0.177917
0.653839 0.456055 0.163788
0.681854 0.458313 0.153351
0.737488 0.479584 0.129150
0.762238 0.486145 0.117035
0.802155 0.504059 0.110809
0.838989 0.520050 0.097900
0.871033 0.532349 0.087341
0.917877 0.556244 0.098541
0.915985 0.552826 0.094604
0.914948 0.551025 0.092499
0.914948 0.551025 0.092499
0.914948 0.551025 0.092499
0.914948 0.551025 0.092499
0.914948 0.551025 0.092499
0.914948 0.551025 0.092499
0.547668 0.502502 0.147675
0.547668 0.502502 0.147675
0.547668 0.502502 0.147675
0.547668 0.502502 0.147675
0.546509 0.501984 0.149841
0.542175 0.500305 0.159027
0.544617 0.502045 0.163696
0.551147 0.504456 0.159454
0.557587 0.501221 0.157135
0.561493 0.497955 0.160187
0.578400 0.499817 0.155823
0.585358 0.495972 0.156097
0.602386 0.499420 0.149536
0.621552 0.502228 0.146179
0.645905 0.504547 0.138092
0.674957 0.512024 0.131744
0.704041 0.521576 0.119965
0.735626 0.531494 0.113403
0.761444 0.541809 0.098206
0.797729 0.550842 0.089203
0.830017 0.557098 0.079803
0.866364 0.576141 0.098816
0.899017 0.599304 0.128693
0.926666 0.619598 0.158051
0.961670 0.637787 0.194000
0.962494 0.635956 0.190948
0.961517 0.634216 0.188934
0.961517 0.634216 0.188934
0.961517 0.634216 0.188934
0.961517 0.634216 0.188934
0.961517 0.634216 0.188934
0.961517 0.634216 0.188934
0.646881 0.589722 0.113281
0.646881 0.589722 0.113281
0.646881 0.589722 0.113281
0.646881 0.589722 0.113281
0.645477 0.588257 0.112885
0.640381 0.583038 0.111450
0.636414 0.580505 0.117523
0.633423 0.578491 0.119049
0.645660 0.580475 0.106720
0.655884 0.582550 0.101196
0.657654 0.576874 0.102234
0.670258 0.577759 0.101196
0.688293 0.581329 0.088074
0.701996 0.581665 0.090210
0.722168 0.587585 0.079437
0.748688 0.590912 0.083527
0.774231 0.595428 0.089874
0.799194 0.606232 0.099670
0.830200 0.624603 0.123810
0.853363 0.640411 0.150818
0.883301 0.652252 0.171082
0.910736 0.667145 0.197632
0.935547 0.685272 0.230194
0.957001 0.702484 0.260101
0.987732 0.720428 0.295593
0.990936 0.719452 0.295807
0.990387 0.717651 0.293549
0.990387 0.717651 0.293549
0.990387 0.717651 0.293549
0.990387 0.717651 0.293549
0.990387 0.717651 0.293549
0.990387 0.717651 0.293549
0.725494 0.685211 0.148987
0.725494 0.685211 0.148987
0.725494 0.685211 0.148987
0.725494 0.685211 0.148987
0.725037 0.684235 0.147827
0.722839 0.680054 0.143005
0.719940 0.675201 0.137482
0.718170 0.672516 0.134827
0.720520 0.671326 0.120758
0.726654 0.667358 0.130920
0.733063 0.664124 0.117706
0.739136 0.664063 0.119904
0.761139 0.671051 0.139618
0.769257 0.674316 0.147308
0.788239 0.682617 0.163086
0.804260 0.685089 0.166779
0.822845 0.689880 0.181091
0.841064 0.700043 0.201996
0.863129 0.715393 0.231873
0.884857 0.720245 0.250641
0.909119 0.741486 0.282837
0.933746 0.751740 0.305267
0.957611 0.767059 0.336456
0.976166 0.782684 0.366486
0.994537 0.800964 0.402039
1.000000 0.801453 0.404633
1.000000 0.799713 0.402283
1.000000 0.799713 0.402283
1.000000 0.799713 0.402283
1.000000 0.799713 0.402283
1.000000 0.799713 0.402283
1.000000 0.799713 0.402283
0.761993 0.772675 0.254944
0.761993 0.772675 0.254944
0.761993 0.772675 0.254944
0.761993 0.772675 0.254944
0.761597 0.771301 0.253082
0.761047 0.767395 0.247345
0.760254 0.763611 0.242065
0.759277 0.761414 0.239899
0.764984 0.770874 0.254181
0.767914 0.763733 0.250854
0.775208 0.760559 0.246704
0.788971 0.763000 0.259766
0.790009 0.763367 0.256744
0.803833 0.769897 0.272430
0.817963 0.770081 0.282318
0.837616 0.779114 0.296814
0.850891 0.783447 0.306122
0.866791 0.792206 0.324951
0.886871 0.806152 0.353302
0.904297 0.811096 0.373016
0.926178 0.820343 0.392059
0.947510 0.837128 0.420197
0.969757 0.845612 0.442078
0.990997 0.858490 0.468445
0.997070 0.874176 0.500122
1.000000 0.876617 0.506042
1.000000 0.875214 0.504150
1.000000 0.875214 0.504150
1.000000 0.875214 0.504150
1.000000 0.875214 0.504150
1.000000 0.875214 0.504150
1.000000 0.875214 0.504150
0.777771 0.869629 0.395477
0.777771 0.869629 0.395477
0.777771 0.869629 0.395477
0.777771 0.869629 0.395477
0.777374 0.868317 0.393707
0.775726 0.863312 0.386932
0.773895 0.858124 0.379913
0.772888 0.853577 0.373566
0.780365 0.854370 0.375122
0.786469 0.854675 0.383057
0.793640 0.848877 0.378143
0.803894 0.852417 0.389374
0.811554 0.852478 0.389832
0.824982 0.858368 0.393188
0.837952 0.858032 0.403931
0.850372 0.861389 0.419189
0.869537 0.869873 0.434082
0.882050 0.875793 0.447174
0.902954 0.885529 0.464874
0.917572 0.891144 0.480988
0.938873 0.897552 0.496552
0.957733 0.906799 0.511292
0.975525 0.917847 0.536285
0.999420 0.924866 0.555481
1.000000 0.937073 0.579559
1.000000 0.939575 0.586700
1.000000 0.938507 0.585632
1.000000 0.938507 0.585632
1.000000 0.938507 0.585632
1.000000 0.938507 0.585632
1.000000 0.938507 0.585632
1.000000 0.938507 0.585632
0.780457 0.886200 0.419525
0.780457 0.886200 0.419525
0.780457 0.886200 0.419525
0.780457 0.886200 0.419525
0.780243 0.885956 0.419312
0.779388 0.885132 0.418457
0.778381 0.884094 0.417419
0.776733 0.882477 0.415802
0.784180 0.882294 0.415619
0.792084 0.890015 0.435181
0.799896 0.886261 0.435425
0.806976 0.893188 0.449371
0.817169 0.897125 0.457275
0.833344 0.906281 0.464325
0.848022 0.909882 0.475372
0.859711 0.914642 0.493500
0.872559 0.924561 0.515778
0.892029 0.933960 0.534302
0.911591 0.940430 0.543945
0.925201 0.946838 0.556458
0.946228 0.953156 0.569214
0.967407 0.960846 0.580536
0.983246 0.969849 0.592712
0.998688 0.976044 0.617432
1.000000 0.987366 0.633240
1.000000 0.989746 0.636871
1.000000 0.988678 0.635834
1.000000 0.988678 0.635834
1.000000 0.988678 0.635834
1.000000 0.988678 0.635834
1.000000 0.988678 0.635834
1.000000 0.988678 0.635834
0.780457 0.886200 0.419525
0.780457 0.886200 0.419525
0.780457 0.886200 0.419525
0.780457 0.886200 0.419525
0.780243 0.885956 0.419312
0.779388 0.885132 0.418457
0.778564 0.884308 0.417633
0.777039 0.882751 0.416077
0.783630 0.882294 0.415619
0.791595 0.889496 0.433899
0.799438 0.886475 0.435425
0.806519 0.892731 0.448456
0.816498 0.896912 0.456818
0.832275 0.905640 0.463898
0.847168 0.909882 0.474518
0.859100 0.914032 0.492065
0.871338 0.923950 0.514587
0.890808 0.933563 0.533691
0.910370 0.940002 0.543365
0.924438 0.946472 0.555664
0.944672 0.952759 0.568420
0.966431 0.960236 0.579956
0.982269 0.969482 0.591156
0.997711 0.975647 0.615875
1.000000 0.987000 0.632721
1.000000 0.992188 0.639313
1.000000 0.992188 0.639313
1.000000 0.992188 0.639313
1.000000 0.992188 0.639313
1.000000 0.992188 0.639313
1.000000 0.992188 0.639313
1.000000 0.992188 0.639313
0.780457 0.886200 0.419525
0.780457 0.886200 0.419525
0.780457 0.886200 0.419525
0.780457 0.886200 0.419525
0.780334 0.886047 0.419403
0.779510 0.885223 0.418579
0.778656 0.884399 0.417725
0.777283 0.883026 0.416351
0.783081 0.882294 0.415619
0.791077 0.888977 0.432587
0.799011 0.886688 0.435425
0.806091 0.892273 0.447571
0.815826 0.896698 0.456390
0.831207 0.904968 0.463470
0.846344 0.909882 0.473694
0.858490 0.913422 0.490601
0.870117 0.923340 0.513367
0.889587 0.933075 0.532837
0.909149 0.939606 0.542755
0.923645 0.946075 0.554901
0.943115 0.952393 0.567627
0.965424 0.959656 0.579376
0.981293 0.969086 0.589600
0.996765 0.975281 0.614349
1.000000 0.986237 0.631775
1.000000 0.992188 0.639313
1.000000 0.992188 0.639313
1.000000 0.992188 0.639313
1.000000 0.992188 0.639313
1.000000 0.992188 0.639313
1.000000 0.992188 0.639313
1.000000 0.992188 0.639313
0.780457 0.886200 0.419525
0.780457 0.886200 0.419525
0.780457 0.886200 0.419525
0.780457 0.886200 0.419525
0.780334 0.886047 0.419403
0.779785 0.885529 0.418854
0.778961 0.884705 0.418030
0.777588 0.883331 0.416656
0.782623 0.882294 0.415619
0.790619 0.888519 0.431427
0.798523 0.886932 0.435425
0.805664 0.891846 0.446716
0.815186 0.896484 0.455963
0.830139 0.904327 0.463043
0.845520 0.909882 0.472870
0.857880 0.912842 0.489197
0.868896 0.922729 0.512146
0.888397 0.932495 0.531647
0.907959 0.939209 0.542175
0.922852 0.945679 0.554108
0.941559 0.951996 0.566833
0.964447 0.959045 0.578796
0.980347 0.968658 0.588196
0.995819 0.974884 0.612823
1.000000 0.985474 0.630829
1.000000 0.992188 0.639313
1.000000 0.992188 0.639313
1.000000 0.992188 0.639313
1.000000 0.992188 0.639313
1.000000 0.992188 0.639313
1.000000 0.992188 0.639313
1.000000 0.992188 0.639313
0.780457 0.886200 0.419525
0.780457 0.886200 0.419525
0.780457 0.886200 0.419525
0.780457 0.886200 0.419525
0.780334 0.886047 0.419403
0.779816 0.885559 0.418884
0.779266 0.884979 0.418335
0.777893 0.883606 0.416962
0.782043 0.882294 0.415619
0.790161 0.888062 0.430267
0.798065 0.887146 0.435425
0.805206 0.891388 0.445801
0.814545 0.896271 0.455536
0.829041 0.903687 0.462616
0.844666 0.909882 0.472015
0.857269 0.912231 0.487793
0.867706 0.922119 0.510925
0.887207 0.931885 0.530426
